img/home/video-play.svg

<svg height="62" viewBox="0 0 63 62" width="63" xmlns="http://www.w3.org/2000/svg"><g fill="none" fill-rule="evenodd" transform="translate(.5)"><circle cx="31" cy="31" fill="#6f38ff" r="31" transform="matrix(-1 0 0 1 62 0)"/><path d="m36.6693572 22.6141489 10.1672886 17.1238545c.8458883 1.424654.376706 3.2652922-1.047948 4.1111805-.4634953.2752004-.9925771.4204357-1.5316162.4204357h-20.3345772c-1.6568543 0-3-1.3431457-3-3 0-.5390391.1452353-1.0681208.4204357-1.5316162l10.1672886-17.1238545c.8458883-1.424654 2.6865265-1.8938363 4.1111805-1.047948.4314591.2561788.7917692.6164889 1.047948 1.047948z" fill="#fff" transform="matrix(0 1 -1 0 65.36 -2.82)"/></g></svg>

<svg xmlns="http://www.w3.org/2000/svg" width="63" height="62" viewBox="0 0 63 62">
  <g fill="none" fill-rule="evenodd" transform="translate(.5)">
    <circle cx="31" cy="31" r="31" fill="#6F38FF" transform="matrix(-1 0 0 1 62 0)"/>
    <path fill="#FFFFFF" d="M36.6693572,22.6141489 L46.8366458,39.7380034 C47.6825341,41.1626574 47.2133518,43.0032956 45.7886978,43.8491839 C45.3252025,44.1243843 44.7961207,44.2696196 44.2570816,44.2696196 L23.9225044,44.2696196 C22.2656501,44.2696196 20.9225044,42.9264739 20.9225044,41.2696196 C20.9225044,40.7305805 21.0677397,40.2014988 21.3429401,39.7380034 L31.5102287,22.6141489 C32.356117,21.1894949 34.1967552,20.7203126 35.6214092,21.5662009 C36.0528683,21.8223797 36.4131784,22.1826898 36.6693572,22.6141489 Z" transform="rotate(90 34.09 31.27)"/>
  </g>
</svg>
